!!!OTL: Dongting sijige
!!!ARE: Asia, China,ÿHunan Yueyang
!! I, 496, 1)
!!!SCT: C2175
!!!YEM: Copyright 1995, estate of Helmut Schaffrath.
**kern
*ICvox
*Ivox
*M2/4
*k[f#]
*G:
{8dd
16b
16ee
4dd
=1
16dd
16b
16ee
16dd
4b
=2
16a
16b
16dd
16ee
16b
16a
16g
16e
=3
8dd
16b
16dd
4a}
=4
{16a
16b
16dd
16ee
16b
16a
16g
16e
=5
8a
16b
16dd
8a
16g
16e
=6
8e
16d
16e
16a
16g
8e
=7
2d}
=8
{8.g
16a
16a
16g
8e
=9
16g
16e
8a
4g}
==
!!!AGN: Xiaodiao
!!!ONB: ESAC (Essen Associative Code) Database: SENGANSU
!!!AMT: simple duple
!!!AIN: vox
!!!EED: Helmut Schaffrath
!!!EEV: 1.0
*-
